X: 5729
T: Caha Mountains
R: reel
M: 4/4
K: Dmixolydian
|:~d3c AcGc|AGEF GEBd|~c3d ~c3A|GEAG EAGE|
D2dc AcGc|AGEF GEag|fage d2AF|GEAG FD~D2:|
fdd^c defd|~g3a bgag|f2df ~a3f|~g3a fd~d2|
fde^c defd|~g3a bgag|fage d2AF|GEAG FD~D2|
fgef defd|~g3a bgag|fadf ~a3f|gceg fd~d2|
fde^c defd|~g3a bgag|fage d2AF|GEAG FD~D2||

